static/logos/pendo-wordmark-color.svg

<svg width="100" height="24" viewBox="0 0 100 24" fill="none" xmlns="http://www.w3.org/2000/svg">
<g clip-path="url(#clip0_1_1712)">
<path fill-rule="evenodd" clip-rule="evenodd" d="M77.806 15.9628C80.3833 15.9628 82.4796 13.9081 82.4796 11.3826C82.4796 8.85704 80.3833 6.80241 77.806 6.80241C75.2292 6.80241 73.1324 8.85704 73.1324 11.3826C73.1324 13.9081 75.2292 15.9628 77.806 15.9628ZM82.4796 0H82.6065H84.694V18.1481H82.4796V16.3361C81.2019 17.4968 79.5542 18.1326 77.806 18.1326C74.0083 18.1326 70.9185 15.1045 70.9185 11.3826C70.9185 7.66046 74.0083 4.6325 77.806 4.6325C79.5542 4.6325 81.2019 5.26824 82.4796 6.42903V0ZM31.8878 15.8828C34.4648 15.8828 36.5614 13.8282 36.5614 11.3026C36.5614 8.77718 34.4648 6.72255 31.8878 6.72255C29.3107 6.72255 27.2141 8.77718 27.2141 11.3026C27.2141 13.8282 29.3107 15.8828 31.8878 15.8828ZM27.2141 6.34931C28.492 5.18852 30.14 4.55268 31.8878 4.55268C35.6856 4.55268 38.7755 7.58074 38.7755 11.3026C38.7755 15.0246 35.6856 18.0527 31.8878 18.0527C30.14 18.0527 28.492 17.417 27.2141 16.2561V22.6852H25V4.53704H27.2141V6.34931ZM43.0001 10.2488C43.4985 8.19764 45.3552 6.72486 47.4731 6.72486C49.5634 6.72486 51.3144 8.1662 51.781 10.2488H43.0001ZM47.4731 4.53704C43.7322 4.53704 40.6888 7.59014 40.6888 11.3426C40.6888 15.0952 43.7322 18.1481 47.4731 18.1481C49.5681 18.1481 51.4907 17.3614 52.7491 15.9896L53.4028 15.2766L53.487 15.1846L53.3954 15.0997L51.9741 13.7883L51.8824 13.7035L51.7977 13.7956L51.144 14.5087C50.3102 15.4177 48.938 15.9605 47.4731 15.9605C45.3552 15.9605 43.4986 14.4877 43.0001 12.4364H54.0815V11.3426C54.0815 7.52639 51.1787 4.53704 47.4731 4.53704ZM97.7856 11.3426C97.7856 13.8889 95.6893 15.9604 93.112 15.9604C90.5352 15.9604 88.4384 13.8889 88.4384 11.3426C88.4384 8.7963 90.5352 6.72477 93.112 6.72477C95.6893 6.72477 97.7856 8.7963 97.7856 11.3426ZM93.112 4.53704C89.3143 4.53704 86.2245 7.59 86.2245 11.3426C86.2245 15.0952 89.3143 18.1481 93.112 18.1481C96.9102 18.1481 100 15.0952 100 11.3426C100 7.59 96.9102 4.53704 93.112 4.53704ZM62.3083 4.53704C60.7699 4.53704 59.3042 5.12292 58.1505 6.19296V4.53704H55.9949V18.1481H58.1505V11.2022C58.1505 8.72403 60.0157 6.70778 62.3083 6.70778C64.6014 6.70778 66.4671 8.72403 66.4671 11.2022V18.1481H68.6222V11.2022C68.6222 7.52704 65.7898 4.53704 62.3083 4.53704Z" fill="#1A2022"/>
<path fill-rule="evenodd" clip-rule="evenodd" d="M0 12.9629H10.4166V23.1481L20.8333 12.9629V2.77778H10.4166L0 12.9629Z" fill="#FF4876"/>
</g>
<defs>
<clipPath id="clip0_1_1712">
<rect width="100" height="23.1481" fill="white"/>
</clipPath>
</defs>
</svg>

<svg xmlns="http://www.w3.org/2000/svg" width="266.667" height="64" fill="none" viewBox="0 0 100 24"><g fill-rule="evenodd" clip-path="url(#a)" clip-rule="evenodd"><path fill="#1A2022" d="M77.806 15.963c2.577 0 4.674-2.055 4.674-4.58 0-2.526-2.097-4.58-4.674-4.58-2.577 0-4.674 2.054-4.674 4.58 0 2.525 2.097 4.58 4.674 4.58ZM82.48 0h2.214v18.148H82.48v-1.812a6.908 6.908 0 0 1-4.674 1.797c-3.798 0-6.888-3.028-6.888-6.75 0-3.723 3.09-6.75 6.888-6.75 1.748 0 3.396.635 4.674 1.796V0ZM31.888 15.883c2.577 0 4.673-2.055 4.673-4.58 0-2.526-2.096-4.58-4.673-4.58s-4.674 2.054-4.674 4.58c0 2.525 2.097 4.58 4.674 4.58Zm-4.674-9.534a6.91 6.91 0 0 1 4.674-1.796c3.798 0 6.887 3.028 6.887 6.75s-3.09 6.75-6.887 6.75a6.909 6.909 0 0 1-4.674-1.797v6.43H25V4.536h2.214v1.812ZM43 10.25a4.626 4.626 0 0 1 4.473-3.524c2.09 0 3.841 1.441 4.308 3.524h-8.78Zm4.473-5.712c-3.74 0-6.784 3.053-6.784 6.806 0 3.752 3.043 6.805 6.784 6.805 2.095 0 4.018-.787 5.276-2.158l.654-.713.084-.092-.092-.085-1.42-1.312-.093-.085-.084.093-.654.713c-.834.909-2.206 1.451-3.67 1.451A4.626 4.626 0 0 1 43 12.436h11.081v-1.093c0-3.817-2.902-6.806-6.608-6.806Zm50.313 6.806c0 2.546-2.097 4.617-4.674 4.617-2.577 0-4.674-2.071-4.674-4.617 0-2.547 2.097-4.618 4.674-4.618 2.577 0 4.674 2.071 4.674 4.618Zm-4.674-6.806c-3.798 0-6.887 3.053-6.887 6.806 0 3.752 3.09 6.805 6.887 6.805 3.798 0 6.888-3.053 6.888-6.805 0-3.753-3.09-6.806-6.888-6.806Zm-30.804 0c-1.538 0-3.004.586-4.157 1.656V4.537h-2.156v13.611h2.156v-6.946c0-2.478 1.865-4.494 4.157-4.494 2.293 0 4.16 2.016 4.16 4.494v6.946h2.154v-6.946c0-3.675-2.832-6.665-6.314-6.665Z"/><path fill="#FF4876" d="M0 12.963h10.417v10.185l10.416-10.185V2.778H10.417L0 12.963Z"/></g><defs><clipPath id="a"><path fill="#fff" d="M0 0h100v23.148H0z"/></clipPath></defs></svg>
